X:489
T:B489-  Vive le Roi
Q:1/4=120
L:1/4
M:6/4
K:G mixolydian
GGG(c3/2B/)c|c3/2d/cB2A|GGAB3/2c/d|dc3/2B/.A3::\
ddde2d|c3/2d/BA2D|G^FGA2D|G^FGA2D|\
B3/2c/dc3/2d/B|BA3/2G/.G3:|]

